X:15
T:Polska från Västergötland
T:Svenska Folkdansar H1 nr 15
O:Västergötland
B:Traditioner av Svenska Folkdansar Häfte 1, nr 15
R:Polska
U:V = wedge
Z:Nils L
N:Jämför +
M:3/4
L:1/8
K:F
A>c B>c A>c | B>d c2 z2 | A>c B>c A>c | c>B G>A F2 |
A>c B>c A>c | B>d c2 e2 | f>d c>A c>B | (G2 F2) z2 ::
A2  G>A F2  | A>c B>c A2  | A2    G>A F2    | A>c B>c A2  |
Tc2 d>c A>c | Tc2 d>c A>c | (d>c) VA2 (c>B) | (G2 F2) z2 :|

